X:11
T:Scartaglen Polka, The
T:Humours of Ballydesmond, The
T:Knocknabower Polka # 1, The
R:polka
D:Davy Spillane: Atlantic Bridge
Z:id:hn-polka-11
M:2/4
L:1/8
K:G
GD G>A|Bd de/f/|gB B/A/G/A/|BA AB/A/|GD G>A|Bd de/f/|gB AB/A/|G2 G>A:|
|:Bd g>f|fe e/f/g/e/|dB B/A/G/A/|BA AG/A/|
Bd g>f|fe e/f/g/e/|dB AB/A/|1 G2 G>A:|2 G2 Gd||
|:gg ag/a/|b2 ba|gg ag/a/|b2 ba|
ge e/f/g/e/|dB g>e|dB AB/A/|1 G2 Gd:|2 G2 G>A||
<end>
<start>
